X:224 
T:White Leaf (reel), The
S:Jack Wade
F:file ID: cre.4/224white_L
B:CRE4.191 (Duilleog Bhan)
L:1/8
Q:180
M:4/4
R:reel
K:G
ge|dGG2 dGeG|dG~G2 edBd|eAA2 eAgA|eA~A2 efge|
dGG2 dGeG|dG~G2 edcB|ABcd efge|dcBA G2:|
Bd|g2 dB GBdB|g2 dB GBdB|a2gf edeg|a2gf edef|
g2 dB GBdB|g2 dB GBdB|ABcd efge|dcBA G2:|

%%%

